X: 16388
T: Gwenivere's
R: jig
M: 6/8
K: Eminor
|:EGA B2 G|B2 G BAF|DFG A2 B|cBA BAG|
EGA B2 G|B2 G BAF|DFG AGF|GFD E3:|
|:Bee ede|fgf edB|Add ^cdf|
agf gfd|Bee ede|fgf edB|dBG AGF|GFD E3:|

